Simply white circles/scalable/places/folder-video.svg

<?xml version="1.0" encoding="UTF-8" standalone="no"?>
<!-- Created with Inkscape (http://www.inkscape.org/) -->

<svg
   xmlns:dc="http://purl.org/dc/elements/1.1/"
   xmlns:cc="http://creativecommons.org/ns#"
   xmlns:rdf="http://www.w3.org/1999/02/22-rdf-syntax-ns#"
   xmlns:svg="http://www.w3.org/2000/svg"
   xmlns="http://www.w3.org/2000/svg"
   xmlns:sodipodi="http://sodipodi.sourceforge.net/DTD/sodipodi-0.dtd"
   xmlns:inkscape="http://www.inkscape.org/namespaces/inkscape"
   width="48"
   height="48"
   viewBox="0 0 12.7 12.7"
   version="1.1"
   id="svg829"
   inkscape:version="0.92.3 (2405546, 2018-03-11)"
   sodipodi:docname="folder-video.svg">
  <defs
     id="defs823" />
  <sodipodi:namedview
     id="base"
     pagecolor="#ffffff"
     bordercolor="#666666"
     borderopacity="1.0"
     inkscape:pageopacity="0.0"
     inkscape:pageshadow="2"
     inkscape:zoom="1.8119611"
     inkscape:cx="11.793044"
     inkscape:cy="21.402203"
     inkscape:document-units="mm"
     inkscape:current-layer="layer1"
     showgrid="false"
     showguides="true"
     inkscape:guide-bbox="true"
     inkscape:window-width="1366"
     inkscape:window-height="719"
     inkscape:window-x="0"
     inkscape:window-y="25"
     inkscape:window-maximized="1"
     scale-x="1.9"
     units="px" />
  <metadata
     id="metadata826">
    <rdf:RDF>
      <cc:Work
         rdf:about="">
        <dc:format>image/svg+xml</dc:format>
        <dc:type
           rdf:resource="http://purl.org/dc/dcmitype/StillImage" />
        <dc:title></dc:title>
      </cc:Work>
    </rdf:RDF>
  </metadata>
  <g
     inkscape:label="Capa 1"
     inkscape:groupmode="layer"
     id="layer1"
     transform="translate(0,-284.3)">
    <path
       style="fill:#e6e6e6;fill-opacity:1;stroke-width:0.52516764"
       d="M 23.978516 0.27539062 A 23.770509 23.770509 0 0 0 0.20703125 24.046875 A 23.770509 23.770509 0 0 0 23.978516 47.816406 A 23.770509 23.770509 0 0 0 47.748047 24.046875 A 23.770509 23.770509 0 0 0 23.978516 0.27539062 z M 23.910156 3.8144531 A 20.436071 20.436071 0 0 1 44.345703 24.25 A 20.436071 20.436071 0 0 1 23.910156 44.685547 A 20.436071 20.436071 0 0 1 3.4726562 24.25 A 20.436071 20.436071 0 0 1 23.910156 3.8144531 z M 10.929688 10.5 C 10.557744 10.500038 10.255896 10.798041 10.255859 11.166016 L 10.255859 37.810547 C 10.255896 38.178295 10.557746 38.476525 10.929688 38.476562 L 14.296875 38.476562 L 33.154297 38.476562 L 36.521484 38.476562 C 36.893424 38.476525 37.195274 38.178522 37.195312 37.810547 L 37.195312 11.166016 C 37.195274 10.798268 36.893427 10.500038 36.521484 10.5 L 33.154297 10.5 L 14.296875 10.5 L 10.929688 10.5 z M 15.435547 13.390625 L 31.808594 13.390625 L 31.808594 23.708984 L 15.435547 23.708984 L 15.435547 13.390625 z M 11.810547 13.607422 L 13.882812 13.607422 L 13.882812 14.644531 L 11.810547 14.644531 L 11.810547 13.607422 z M 33.568359 13.607422 L 35.640625 13.607422 L 35.640625 14.644531 L 33.568359 14.644531 L 33.568359 13.607422 z M 11.810547 16.716797 L 13.882812 16.716797 L 13.882812 17.751953 L 11.810547 17.751953 L 11.810547 16.716797 z M 33.568359 16.716797 L 35.640625 16.716797 L 35.640625 17.751953 L 33.568359 17.751953 L 33.568359 16.716797 z M 11.810547 19.824219 L 13.882812 19.824219 L 13.882812 20.861328 L 11.810547 20.861328 L 11.810547 19.824219 z M 33.568359 19.824219 L 35.640625 19.824219 L 35.640625 20.861328 L 33.568359 20.861328 L 33.568359 19.824219 z M 11.810547 22.933594 L 13.882812 22.933594 L 13.882812 23.96875 L 11.810547 23.96875 L 11.810547 22.933594 z M 33.568359 22.933594 L 35.640625 22.933594 L 35.640625 23.96875 L 33.568359 23.96875 L 33.568359 22.933594 z M 15.435547 25.869141 L 31.808594 25.869141 L 31.808594 35.59375 L 15.435547 35.59375 L 15.435547 25.869141 z M 11.810547 26.041016 L 13.882812 26.041016 L 13.882812 27.078125 L 11.810547 27.078125 L 11.810547 26.041016 z M 33.568359 26.041016 L 35.640625 26.041016 L 35.640625 27.078125 L 33.568359 27.078125 L 33.568359 26.041016 z M 11.810547 29.150391 L 13.882812 29.150391 L 13.882812 30.185547 L 11.810547 30.185547 L 11.810547 29.150391 z M 33.568359 29.150391 L 35.640625 29.150391 L 35.640625 30.185547 L 33.568359 30.185547 L 33.568359 29.150391 z M 11.810547 32.257812 L 13.882812 32.257812 L 13.882812 33.294922 L 11.810547 33.294922 L 11.810547 32.257812 z M 33.568359 32.257812 L 35.640625 32.257812 L 35.640625 33.294922 L 33.568359 33.294922 L 33.568359 32.257812 z M 11.810547 35.367188 L 13.882812 35.367188 L 13.882812 36.404297 L 11.810547 36.404297 L 11.810547 35.367188 z M 33.568359 35.367188 L 35.640625 35.367188 L 35.640625 36.404297 L 33.568359 36.404297 L 33.568359 35.367188 z "
       transform="matrix(0.26458333,0,0,0.26458333,0,284.3)"
       id="path1374" />
  </g>
</svg>

<?xml version="1.0" encoding="UTF-8" standalone="no"?>
<svg
   xmlns:dc="http://purl.org/dc/elements/1.1/"
   xmlns:cc="http://creativecommons.org/ns#"
   xmlns:rdf="http://www.w3.org/1999/02/22-rdf-syntax-ns#"
   xmlns:svg="http://www.w3.org/2000/svg"
   xmlns="http://www.w3.org/2000/svg"
   xmlns:sodipodi="http://sodipodi.sourceforge.net/DTD/sodipodi-0.dtd"
   xmlns:inkscape="http://www.inkscape.org/namespaces/inkscape"
   width="48"
   height="48"
   version="1.1"
   viewBox="0 0 12.7 12.7"
   id="svg8"
   sodipodi:docname="folder-video.svg"
   inkscape:version="0.92.3 (2405546, 2018-03-11)">
  <defs
     id="defs12" />
  <sodipodi:namedview
     pagecolor="#ffffff"
     bordercolor="#666666"
     borderopacity="1"
     objecttolerance="10"
     gridtolerance="10"
     guidetolerance="10"
     inkscape:pageopacity="0"
     inkscape:pageshadow="2"
     inkscape:window-width="883"
     inkscape:window-height="480"
     id="namedview10"
     showgrid="false"
     inkscape:zoom="4.9166667"
     inkscape:cx="4.1694917"
     inkscape:cy="24"
     inkscape:window-x="0"
     inkscape:window-y="25"
     inkscape:window-maximized="0"
     inkscape:current-layer="svg8" />
  <metadata
     id="metadata2">
    <rdf:RDF>
      <cc:Work
         rdf:about="">
        <dc:format>image/svg+xml</dc:format>
        <dc:type
           rdf:resource="http://purl.org/dc/dcmitype/StillImage" />
        <dc:title></dc:title>
      </cc:Work>
    </rdf:RDF>
  </metadata>
  <g
     transform="translate(0,-284.3)"
     id="g6"
     style="fill:#e6e6e6">
    <path
       transform="matrix(.26458 0 0 .26458 0 284.3)"
       d="m23.979 0.27539a23.771 23.771 0 0 0 -23.771 23.771 23.771 23.771 0 0 0 23.771 23.77 23.771 23.771 0 0 0 23.77 -23.77 23.771 23.771 0 0 0 -23.77 -23.771zm-0.06836 3.5391a20.436 20.436 0 0 1 20.436 20.436 20.436 20.436 0 0 1 -20.436 20.436 20.436 20.436 0 0 1 -20.437 -20.436 20.436 20.436 0 0 1 20.437 -20.436zm-12.98 6.6855c-0.37194 3.8e-5 -0.67379 0.29804-0.67383 0.66602v26.645c3.7e-5 0.36775 0.30189 0.66598 0.67383 0.66602h3.3672 18.857 3.3672c0.37194-3.7e-5 0.67379-0.29804 0.67383-0.66602v-26.645c-3.8e-5 -0.36775-0.30188-0.66598-0.67383-0.66602h-3.3672-18.857-3.3672zm4.5059 2.8906h16.373v10.318h-16.373v-10.318zm-3.625 0.2168h2.0723v1.0371h-2.0723v-1.0371zm21.758 0h2.0723v1.0371h-2.0723v-1.0371zm-21.758 3.1094h2.0723v1.0352h-2.0723v-1.0352zm21.758 0h2.0723v1.0352h-2.0723v-1.0352zm-21.758 3.1074h2.0723v1.0371h-2.0723v-1.0371zm21.758 0h2.0723v1.0371h-2.0723v-1.0371zm-21.758 3.1094h2.0723v1.0352h-2.0723v-1.0352zm21.758 0h2.0723v1.0352h-2.0723v-1.0352zm-18.133 2.9355h16.373v9.7246h-16.373v-9.7246zm-3.625 0.17188h2.0723v1.0371h-2.0723v-1.0371zm21.758 0h2.0723v1.0371h-2.0723v-1.0371zm-21.758 3.1094h2.0723v1.0352h-2.0723v-1.0352zm21.758 0h2.0723v1.0352h-2.0723v-1.0352zm-21.758 3.1074h2.0723v1.0371h-2.0723v-1.0371zm21.758 0h2.0723v1.0371h-2.0723v-1.0371zm-21.758 3.1094h2.0723v1.0371h-2.0723v-1.0371zm21.758 0h2.0723v1.0371h-2.0723v-1.0371z"
       fill="#1a1a1a"
       stroke-width=".52517"
       id="path4"
       style="fill:#e6e6e6" />
  </g>
</svg>
